X: 1
T: March Of 1981, The
Z: ceolachan
S: https://thesession.org/tunes/11917#setting11917
R: barndance
M: 4/4
L: 1/8
K: Gmaj
|: B>c |dGBd gedB | AecA E2 A>G | FD F/G/A d^ced | dcA^A B2 B>c |
dG B/c/d g2 f>g | agec A2 f>e | d^c=cA FD D/E/F | G2 G>F G2 :|
|: G/A/B/c/ |d2 [Gg]>f gdB>c | dB c/B/A E2 A>B | cea^g aba>=g | f2 d>d d2 B>c |
dBgd BG e/d/c/B/ | AecA E2 f>e | d^c=cA F2 E>F | G2 A/G/F G2 :|
